public/images/logos/miro.svg

<svg fill="none" height="64" viewBox="0 0 64 64" width="64" xmlns="http://www.w3.org/2000/svg" xmlns:xlink="http://www.w3.org/1999/xlink"><clipPath id="a"><path d="m0 0h64v64h-64z"/></clipPath><g clip-path="url(#a)"><path d="m64 0h-64v64h64z" fill="#ffd02f"/><path clip-rule="evenodd" d="m44.3997 8h-7.0667l5.8667 10.2667-12.8-10.2667h-7.0667l6.4 12.5333-13.3333-12.5333h-7.06669l7.06669 16-7.06669 32h7.06669l13.4666-34.2667-6.5333 34.2667h7.0667l12.9333-36.5333-5.8667 36.5333h7.0667l12.8-40z" fill="#050038" fill-rule="evenodd"/></g></svg>

<svg width="64" height="64" viewBox="0 0 64 64" fill="none" xmlns="http://www.w3.org/2000/svg">
<g clip-path="url(#clip0_555_6671)">
<path d="M64 0H0V64H64V0Z" fill="#FFD02F"/>
<path fill-rule="evenodd" clip-rule="evenodd" d="M44.3997 8H37.333L43.1997 18.2667L30.3997 8H23.333L29.733 20.5333L16.3997 8H9.33301L16.3997 24L9.33301 56H16.3997L29.8663 21.7333L23.333 56H30.3997L43.333 19.4667L37.4663 56H44.533L57.333 16L44.3997 8Z" fill="#050038"/>
</g>
<defs>
<clipPath id="clip0_555_6671">
<rect width="64" height="64" fill="white"/>
</clipPath>
</defs>
</svg>
